client/public/img/game/weapons/model_89.svg

<?xml version="1.0" encoding="UTF-8" standalone="no"?>
<svg
   width="110"
   height="110"
   viewBox="0 0 110 110"
   fill="none"
   version="1.1"
   id="svg25"
   sodipodi:docname="model_89.svg"
   inkscape:version="1.3.2 (1:1.3.2+202311252150+091e20ef0f)"
   xmlns:inkscape="http://www.inkscape.org/namespaces/inkscape"
   xmlns:sodipodi="http://sodipodi.sourceforge.net/DTD/sodipodi-0.dtd"
   xmlns="http://www.w3.org/2000/svg"
   xmlns:svg="http://www.w3.org/2000/svg">
  <sodipodi:namedview
     id="namedview25"
     pagecolor="#505050"
     bordercolor="#ffffff"
     borderopacity="1"
     inkscape:showpageshadow="0"
     inkscape:pageopacity="0"
     inkscape:pagecheckerboard="1"
     inkscape:deskcolor="#d1d1d1"
     inkscape:zoom="3.8215907"
     inkscape:cx="-41.213204"
     inkscape:cy="50.110023"
     inkscape:window-width="2560"
     inkscape:window-height="1368"
     inkscape:window-x="0"
     inkscape:window-y="0"
     inkscape:window-maximized="1"
     inkscape:current-layer="svg25" />
  <g
     clip-path="url(#clip0_1744_862)"
     id="g25"
     transform="matrix(1.0245107,0,0,1.0245107,-1.5170238,-1.920873)">
    <path
       fill-rule="evenodd"
       clip-rule="evenodd"
       d="m 50.806,54.9312 c -0.6794,0.9918 -0.8882,1.8979 0.0302,2.8094 1.0072,0.9994 1.2087,2.4119 0.7944,3.9579 -0.0139,0.0517 -0.0274,0.1024 -0.0406,0.152 -0.3817,1.4308 -0.525,1.9678 -2.2014,2.8097 -1.9342,0.9714 -3.4467,3.3133 -3.7002,4.9963 -0.0304,0.202 -0.0588,0.3921 -0.0856,0.571 -0.3253,2.1762 -0.4045,2.7058 -0.8747,3.1306 -0.5512,0.498 -1.0641,0.8633 -2.1341,0.8856 -1.07,0.0224 -2.0453,-1.0922 -2.3527,-1.6245 -0.1669,-0.2892 -0.7214,-2.3661 0.1341,-4.8369 0.7281,-2.103 1.2522,-2.6683 2.2627,-3.7584 0.1768,-0.1907 0.3684,-0.3975 0.5787,-0.6313 l 0.8388,-0.946 c 0.0764,-0.0861 0.1847,-0.1372 0.2998,-0.1412 l 0.6091,-0.0212 c 0.1867,-0.0065 0.3514,0.1136 0.4374,0.2794 0.9614,1.8529 4.6994,1.9282 5.4024,-0.6952 0.7379,-2.7542 -2.4524,-4.8387 -4.4361,-3.43 l 2.0588,-2.2888 z m -4.1568,11.4754 c -1.358,2.4968 -1.5812,3.1642 -1.7064,5.4747 -0.0435,0.8036 -0.7151,1.562 -1.9311,1.829 -0.9584,0.2105 -2.1247,-0.4882 -2.36,-1.3529 -0.7131,-2.1758 -0.054,-5.6803 2.5021,-8.2432 0.9686,-0.9712 1.8218,-0.8664 2.7952,-0.3857 1.0411,0.5142 1.0882,1.9646 0.7002,2.6781 z"
       fill="#453f3b"
       stroke="#37332f"
       stroke-width="0.560504"
       stroke-miterlimit="3.99393"
       id="path1" />
    <rect
       x="103.828"
       y="17.9531"
       width="1.13811"
       height="1.30492"
       transform="rotate(-30,103.828,17.9531)"
       fill="#403b36"
       stroke="#37332f"
       stroke-width="0.560504"
       id="rect1" />
    <path
       d="m 38.2609,57.1978 c -0.9087,0.4656 -1.1288,0.7151 -1.3052,1.3143 -0.031,0.1052 0.2103,0.1079 0.2703,0.0068 0.2207,-0.3724 0.402,-0.47 0.9332,-0.5862 0.4067,-0.0889 0.5861,-0.1545 0.8039,-0.4392 0.0526,-0.0686 0.2674,-0.0378 0.2752,0.0585 0.1704,2.1105 0.7623,2.9015 2.4029,4.0998 l 0.9539,-3.6028 -2.03,-1.4626 -1.2686,-0.2696 c -0.1941,-0.0413 -0.4757,0.007 -0.5921,0.2482 -0.1616,0.335 -0.2641,0.5409 -0.4435,0.6328 z"
       fill="#423d38"
       stroke="#37332f"
       stroke-width="0.560504"
       id="path2" />
    <path
       d="m 40.9396,56.7778 c 0.6433,-0.8288 1.3985,-2.0091 0.3517,-4.3086 l 11.6991,-6.7545 c 0.5608,-0.3238 0.8201,-0.7399 0.5744,-1.1655 l 1.787,-1.0317 3.6069,6.2473 c -3.1943,1.9709 -7.4474,4.7736 -7.4474,4.7736 -3.6925,2.1318 -4.6434,3.3167 -6.4219,5.3465"
       fill="#9a9088"
       id="path3" />
    <path
       d="m 47.0659,62.9911 c -1.4736,-0.8612 -1.869,-1.7288 -1.6306,-3.5996 l -0.6306,0.629 c 0.3071,1.7294 0.8726,2.8327 2.1551,3.1764 0.1681,0.0451 0.201,-0.1504 0.1061,-0.2058 z"
       fill="#403b36"
       stroke="#37332f"
       stroke-width="0.560504"
       stroke-miterlimit="3.99393"
       id="path4" />
    <path
       d="m 104.746,15.9357 -0.818,-1.4181 1.575,-0.9098 0.518,0.2718 0.61,1.0579 z"
       fill="#534c47"
       stroke="#37332f"
       stroke-width="0.560502"
       stroke-miterlimit="3.99393"
       stroke-linecap="round"
       id="path5" />
    <path
       d="M 106.9,14.2068 55.5556,43.8505 c -0.0674,0.0389 -0.0618,0.1746 0.0124,0.3032 l 1.0729,1.8583 c 0.0742,0.1286 0.1891,0.2013 0.2564,0.1624 L 108.242,16.5307 c 0.067,-0.0389 0.061,-0.1746 -0.013,-0.3032 l -1.073,-1.8583 c -0.074,-0.1286 -0.189,-0.2013 -0.256,-0.1624 z"
       fill="#453f3b"
       stroke="#37332f"
       stroke-width="1.12101"
       stroke-miterlimit="3.99393"
       stroke-linecap="round"
       id="path6" />
    <path
       d="M 105.7,18.2161 78.8271,33.7313 c -0.0674,0.0389 -0.0733,0.1548 -0.0132,0.2589 l 0.8685,1.5043 c 0.0601,0.1041 0.1634,0.1569 0.2308,0.118 L 106.786,20.0973 c 0.068,-0.0389 0.074,-0.1548 0.013,-0.2589 l -0.868,-1.5042 c -0.06,-0.1041 -0.163,-0.157 -0.231,-0.1181 z"
       fill="#453f3b"
       stroke="#37332f"
       stroke-width="1.12101"
       stroke-miterlimit="3.99393"
       stroke-linecap="round"
       id="path7" />
    <path
       d="m 58.9587,49.7656 -3.6069,-6.2473 -1.787,1.0317 2.6262,4.5489 c 0.2717,0.4706 0.0649,1.0214 -0.6018,1.4063 0,0 -1.0272,0.6002 -2.4709,1.675 -1.408,1.0482 -1.6138,1.5069 -1.607,2.359 0,0 4.253,-2.8026 7.4474,-4.7736 z"
       fill="#877c73"
       stroke="#37332f"
       stroke-width="0.560504"
       stroke-miterlimit="3.99393"
       stroke-linecap="round"
       id="path8" />
    <path
       d="m 2.27007,81.6409 9.97133,15.275 18.0551,-19.9118 c 0.4674,-0.4675 -4.4714,-9.3068 -5.392,-8.7753 z"
       fill="#515151"
       stroke="#333333"
       stroke-width="1.12101"
       stroke-miterlimit="3.99393"
       stroke-linecap="round"
       id="path9" />
    <path
       d="M 5.40724,79.7638 14.8181,94.068 32.8732,74.1562 c 0.4674,-0.4675 1.2162,-0.7627 1.6077,0.3202 l 5.3611,-0.5247 c -2.4403,-6.2063 1.5024,-9.8741 5.2447,-14.0672 l -4.1494,-3.1081 c -2.9002,3.2262 -5.6726,6.6077 -8.2861,10.1822 -1.9153,-0.8378 -3.689,-1.1384 -4.6096,-0.6069 z"
       fill="#883c2b"
       stroke="#4e2218"
       stroke-width="1.12101"
       stroke-miterlimit="3.99393"
       stroke-linecap="round"
       id="path10" />
    <path
       d="m 34.9418,73.0007 3.1424,-0.4318 c -1.0104,-5.8805 0.8668,-7.6153 4.2714,-11.328 l -2.8883,1.3274 0.8958,-3.1178 c -4.081,5.4055 -6.3829,6.0803 -5.4213,13.5502 z"
       fill="#743325"
       id="path11" />
    <path
       d="m 85.3073,33.3127 -2.0632,-3.5734 c 2.1842,-1.068 3.1871,-1.2194 3.8314,-0.1432 0.8713,1.5091 0.1055,2.6348 -1.7682,3.7166 z"
       fill="#57504b"
       stroke="#37332f"
       stroke-width="1.12101"
       stroke-miterlimit="3.99393"
       stroke-linecap="round"
       id="path12" />
    <path
       d="m 85.6638,30.2979 c 0.2657,-0.1535 0.3568,-0.4933 0.2034,-0.7591 -0.1535,-0.2657 -0.4933,-0.3568 -0.7591,-0.2033 -0.2657,0.1534 -0.3568,0.4932 -0.2033,0.759 0.1534,0.2657 0.4932,0.3568 0.759,0.2034 z"
       fill="#47413d"
       stroke="#37332f"
       stroke-width="0.560502"
       stroke-miterlimit="3.99393"
       stroke-linecap="round"
       id="path13" />
    <path
       d="m 56.4543,45.4285 26.7878,-15.6896 2.0582,3.5644 C 77.5056,39.7204 67.7162,45.0167 58.7059,49.3285 Z"
       fill="#883c2b"
       id="path14" />
    <path
       d="m 51.3645,50.3105 -7.7704,4.4862 c -0.3065,0.177 -0.4116,0.569 -0.2346,0.8755 l 0.2136,0.37 c 0.177,0.3066 0.569,0.4116 0.8755,0.2346 l 7.7704,-4.4862 c 0.3066,-0.177 0.4116,-0.569 0.2346,-0.8755 l -0.2136,-0.37 c -0.177,-0.3066 -0.569,-0.4116 -0.8755,-0.2346 z"
       fill="#5b534d"
       stroke="#37332f"
       stroke-width="0.560502"
       stroke-miterlimit="3.99393"
       stroke-linecap="round"
       id="path15" />
    <path
       d="m 44.3246,56.0878 c 0.301,-0.1738 0.4041,-0.5586 0.2303,-0.8596 -0.1737,-0.301 -0.5586,-0.4041 -0.8595,-0.2303 -0.301,0.1737 -0.4041,0.5586 -0.2304,0.8596 0.1738,0.3009 0.5586,0.4041 0.8596,0.2303 z"
       fill="#5b534d"
       stroke="#37332f"
       stroke-width="0.560502"
       stroke-miterlimit="3.99393"
       stroke-linecap="round"
       id="path16" />
    <path
       d="m 44.6832,57.1765 c 0.1686,-0.0974 0.2263,-0.313 0.129,-0.4815 -0.0974,-0.1686 -0.3129,-0.2264 -0.4815,-0.1291 -0.1686,0.0974 -0.2264,0.313 -0.1291,0.4816 0.0974,0.1685 0.313,0.2263 0.4816,0.129 z"
       fill="#4e4742"
       stroke="#37332f"
       stroke-width="0.280252"
       stroke-miterlimit="3.99393"
       stroke-linecap="round"
       id="path17" />
    <path
       d="m 48.9273,54.9747 c 0.1942,-0.1121 0.2607,-0.3603 0.1486,-0.5545 -0.1121,-0.1941 -0.3603,-0.2606 -0.5545,-0.1485 -0.1941,0.112 -0.2606,0.3603 -0.1485,0.5544 0.1121,0.1942 0.3603,0.2607 0.5544,0.1486 z"
       fill="#4e4742"
       stroke="#37332f"
       stroke-width="0.280252"
       stroke-miterlimit="3.99393"
       stroke-linecap="round"
       id="path18" />
    <path
       d="m 51.5538,49.9475 c 0.2131,-0.0696 0.3295,-0.2988 0.2599,-0.5119 -0.0696,-0.2131 -0.2987,-0.3294 -0.5118,-0.2598 -0.2131,0.0696 -0.3295,0.2987 -0.2599,0.5118 0.0696,0.2131 0.2987,0.3295 0.5118,0.2599 z"
       fill="#4e4742"
       stroke="#37332f"
       stroke-width="0.280252"
       stroke-miterlimit="3.99393"
       stroke-linecap="round"
       id="path19" />
    <path
       d="m 42.7884,49.1543 -1.179,0.6807 0.7236,1.2533 1.179,-0.6807 z"
       fill="#453f3b"
       stroke="#37332f"
       stroke-width="0.560502"
       stroke-miterlimit="3.99393"
       stroke-linecap="round"
       id="path20" />
    <path
       d="m 52.8053,51.4497 -0.8445,-1.4815 -3.5386,2.04 c -0.3395,0.7718 0.0356,1.429 0.8226,1.5104 z"
       fill="#3c3834"
       stroke="#37332f"
       stroke-width="0.560502"
       stroke-miterlimit="3.99393"
       stroke-linecap="round"
       id="path21" />
    <path
       d="m 41.7168,51.0479 3.0377,-1.7539 3.4614,-1.7315 0.3934,0.6814 -6.3835,3.6855 z"
       fill="#605852"
       stroke="#37332f"
       stroke-width="0.560502"
       stroke-miterlimit="3.99393"
       stroke-linecap="round"
       id="path22" />
    <path
       d="m 81.186,36.4659 c -5.0868,3.6631 -10.7344,6.9225 -16.3245,9.8089 l 0.0974,-3.3719 13.606,-7.8554 z"
       fill="#743325"
       id="path23" />
    <path
       d="m 56.4543,45.4285 26.7878,-15.6896 2.0582,3.5644 C 77.5056,39.7204 67.7162,45.0167 58.7059,49.3285 Z"
       stroke="#4d2219"
       stroke-width="1.12101"
       stroke-miterlimit="3.99393"
       stroke-linecap="round"
       id="path24" />
    <path
       d="m 40.9396,56.7778 c 0.6433,-0.8288 1.3985,-2.0091 0.3517,-4.3086 l 11.6991,-6.7545 c 0.5608,-0.3238 0.8201,-0.7399 0.5744,-1.1655 l 1.787,-1.0317 3.6069,6.2473 c -3.1943,1.9709 -7.4474,4.7736 -7.4474,4.7736 -3.6925,2.1318 -4.6434,3.3167 -6.4219,5.3465"
       stroke="#37332f"
       stroke-width="1.12101"
       stroke-miterlimit="3.99393"
       stroke-linecap="round"
       id="path25" />
  </g>
  <defs
     id="defs25">
    <clipPath
       id="clip0_1744_862">
      <rect
         width="110"
         height="110"
         fill="white"
         id="rect25" />
    </clipPath>
  </defs>
</svg>

<svg width="110" height="110" viewBox="0 0 110 110" fill="none" xmlns="http://www.w3.org/2000/svg">
<g clip-path="url(#clip0_1744_862)">
<path fill-rule="evenodd" clip-rule="evenodd" d="M50.806 54.9312C50.1266 55.923 49.9178 56.8291 50.8362 57.7406C51.8434 58.74 52.0449 60.1525 51.6306 61.6985C51.6167 61.7502 51.6032 61.8009 51.59 61.8505C51.2083 63.2813 51.065 63.8183 49.3886 64.6602C47.4544 65.6316 45.9419 67.9735 45.6884 69.6565C45.658 69.8585 45.6296 70.0486 45.6028 70.2275C45.2775 72.4037 45.1983 72.9333 44.7281 73.3581C44.1769 73.8561 43.664 74.2214 42.594 74.2437C41.524 74.2661 40.5487 73.1515 40.2413 72.6192C40.0744 72.33 39.5199 70.2531 40.3754 67.7823C41.1035 65.6793 41.6276 65.114 42.6381 64.0239C42.8149 63.8332 43.0065 63.6264 43.2168 63.3926L44.0556 62.4466C44.132 62.3605 44.2403 62.3094 44.3554 62.3054L44.9645 62.2842C45.1512 62.2777 45.3159 62.3978 45.4019 62.5636C46.3633 64.4165 50.1013 64.4918 50.8043 61.8684C51.5422 59.1142 48.3519 57.0297 46.3682 58.4384L48.427 56.1497L50.806 54.9312ZM46.6492 66.4066C45.2912 68.9034 45.068 69.5708 44.9428 71.8813C44.8993 72.6849 44.2277 73.4433 43.0117 73.7103C42.0533 73.9208 40.887 73.2221 40.6517 72.3574C39.9386 70.1816 40.5977 66.6771 43.1538 64.1142C44.1224 63.143 44.9756 63.2478 45.949 63.7285C46.9901 64.2427 47.0372 65.6931 46.6492 66.4066Z" fill="#453F3B" stroke="#37332F" stroke-width="0.560504" stroke-miterlimit="3.99393"/>
<rect x="103.828" y="17.9531" width="1.13811" height="1.30492" transform="rotate(-30 103.828 17.9531)" fill="#403B36" stroke="#37332F" stroke-width="0.560504"/>
<path d="M38.2609 57.1978C37.3522 57.6634 37.1321 57.9129 36.9557 58.5121C36.9247 58.6173 37.166 58.62 37.226 58.5189C37.4467 58.1465 37.628 58.0489 38.1592 57.9327C38.5659 57.8438 38.7453 57.7782 38.9631 57.4935C39.0157 57.4249 39.2305 57.4557 39.2383 57.552C39.4087 59.6625 40.0006 60.4535 41.6412 61.6518L42.5951 58.049L40.5651 56.5864L39.2965 56.3168C39.1024 56.2755 38.8208 56.3238 38.7044 56.565C38.5428 56.9 38.4403 57.1059 38.2609 57.1978Z" fill="#423D38" stroke="#37332F" stroke-width="0.560504"/>
<path d="M40.9396 56.7778C41.5829 55.949 42.3381 54.7687 41.2913 52.4692L52.9904 45.7147C53.5512 45.3909 53.8105 44.9748 53.5648 44.5492L55.3518 43.5175L58.9587 49.7648C55.7644 51.7357 51.5113 54.5384 51.5113 54.5384C47.8188 56.6702 46.8679 57.8551 45.0894 59.8849" fill="#9A9088"/>
<path d="M47.0659 62.9911C45.5923 62.1299 45.1969 61.2623 45.4353 59.3915L44.8047 60.0205C45.1118 61.7499 45.6773 62.8532 46.9598 63.1969C47.1279 63.242 47.1608 63.0465 47.0659 62.9911Z" fill="#403B36" stroke="#37332F" stroke-width="0.560504" stroke-miterlimit="3.99393"/>
<path d="M104.746 15.9357L103.928 14.5176L105.503 13.6078L106.021 13.8796L106.631 14.9375L104.746 15.9357Z" fill="#534C47" stroke="#37332F" stroke-width="0.560502" stroke-miterlimit="3.99393" stroke-linecap="round"/>
<path d="M106.9 14.2068L55.5556 43.8505C55.4882 43.8894 55.4938 44.0251 55.568 44.1537L56.6409 46.012C56.7151 46.1406 56.83 46.2133 56.8973 46.1744L108.242 16.5307C108.309 16.4918 108.303 16.3561 108.229 16.2275L107.156 14.3692C107.082 14.2406 106.967 14.1679 106.9 14.2068Z" fill="#8E8470" stroke="#39352D" stroke-width="1.12101" stroke-miterlimit="3.99393" stroke-linecap="round"/>
<path d="M105.7 18.2161L78.8271 33.7313C78.7597 33.7702 78.7538 33.8861 78.8139 33.9902L79.6824 35.4945C79.7425 35.5986 79.8458 35.6514 79.9132 35.6125L106.786 20.0973C106.854 20.0584 106.86 19.9425 106.799 19.8384L105.931 18.3342C105.871 18.2301 105.768 18.1772 105.7 18.2161Z" fill="#817760" stroke="#3B362B" stroke-width="1.12101" stroke-miterlimit="3.99393" stroke-linecap="round"/>
<path d="M58.9587 49.7656L55.3518 43.5183L53.5648 44.55L56.191 49.0989C56.4627 49.5695 56.2559 50.1203 55.5892 50.5052C55.5892 50.5052 54.562 51.1054 53.1183 52.1802C51.7103 53.2284 51.5045 53.6871 51.5113 54.5392C51.5113 54.5392 55.7643 51.7366 58.9587 49.7656Z" fill="#877C73" stroke="#37332F" stroke-width="0.560504" stroke-miterlimit="3.99393" stroke-linecap="round"/>
<path d="M2.27007 81.6409L12.2414 96.9159L30.2965 77.0041C30.7639 76.5366 25.8251 67.6973 24.9045 68.2288L2.27007 81.6409Z" fill="#515151" stroke="#333333" stroke-width="1.12101" stroke-miterlimit="3.99393" stroke-linecap="round"/>
<path d="M5.40724 79.7638L14.8181 94.068L32.8732 74.1562C33.3406 73.6887 34.0894 73.3935 34.4809 74.4764L39.842 73.9517C37.4017 67.7454 41.3444 64.0776 45.0867 59.8845L40.9373 56.7764C38.0371 60.0026 35.2647 63.3841 32.6512 66.9586C30.7359 66.1208 28.9622 65.8202 28.0416 66.3517L5.40724 79.7638Z" fill="#883C2B" stroke="#4E2218" stroke-width="1.12101" stroke-miterlimit="3.99393" stroke-linecap="round"/>
<path d="M34.9418 73.0007L38.0842 72.5689C37.0738 66.6884 38.951 64.9536 42.3556 61.2409L39.4673 62.5683L40.3631 59.4505C36.2821 64.856 33.9802 65.5308 34.9418 73.0007Z" fill="#743325"/>
<path d="M85.3073 33.3127L83.2441 29.7393C85.4283 28.6713 86.4312 28.5199 87.0755 29.5961C87.9468 31.1052 87.181 32.2309 85.3073 33.3127Z" fill="#57504B" stroke="#37332F" stroke-width="1.12101" stroke-miterlimit="3.99393" stroke-linecap="round"/>
<path d="M85.6638 30.2979C85.9295 30.1444 86.0206 29.8046 85.8672 29.5388C85.7137 29.2731 85.3739 29.182 85.1081 29.3355C84.8424 29.4889 84.7513 29.8287 84.9048 30.0945C85.0582 30.3602 85.398 30.4513 85.6638 30.2979Z" fill="#47413D" stroke="#37332F" stroke-width="0.560502" stroke-miterlimit="3.99393" stroke-linecap="round"/>
<path d="M56.4543 45.4285L83.2421 29.7389L85.3003 33.3033C77.5056 39.7204 67.7162 45.0167 58.7059 49.3285L56.4543 45.4285Z" fill="#883C2B"/>
<path d="M51.3645 50.3105L43.5941 54.7967C43.2876 54.9737 43.1825 55.3657 43.3595 55.6722L43.5731 56.0422C43.7501 56.3488 44.1421 56.4538 44.4486 56.2768L52.219 51.7906C52.5256 51.6136 52.6306 51.2216 52.4536 50.9151L52.24 50.5451C52.063 50.2385 51.671 50.1335 51.3645 50.3105Z" fill="#5B534D" stroke="#37332F" stroke-width="0.560502" stroke-miterlimit="3.99393" stroke-linecap="round"/>
<path d="M44.3246 56.0878C44.6256 55.914 44.7287 55.5292 44.5549 55.2282C44.3812 54.9272 43.9963 54.8241 43.6954 54.9979C43.3944 55.1716 43.2913 55.5565 43.465 55.8575C43.6388 56.1584 44.0236 56.2616 44.3246 56.0878Z" fill="#5B534D" stroke="#37332F" stroke-width="0.560502" stroke-miterlimit="3.99393" stroke-linecap="round"/>
<path d="M44.6832 57.1765C44.8518 57.0791 44.9095 56.8635 44.8122 56.695C44.7148 56.5264 44.4993 56.4686 44.3307 56.5659C44.1621 56.6633 44.1043 56.8789 44.2016 57.0475C44.299 57.216 44.5146 57.2738 44.6832 57.1765Z" fill="#4E4742" stroke="#37332F" stroke-width="0.280252" stroke-miterlimit="3.99393" stroke-linecap="round"/>
<path d="M48.9273 54.9747C49.1215 54.8626 49.188 54.6144 49.0759 54.4202C48.9638 54.2261 48.7156 54.1596 48.5214 54.2717C48.3273 54.3837 48.2608 54.632 48.3729 54.8261C48.485 55.0203 48.7332 55.0868 48.9273 54.9747Z" fill="#4E4742" stroke="#37332F" stroke-width="0.280252" stroke-miterlimit="3.99393" stroke-linecap="round"/>
<path d="M51.5538 49.9475C51.7669 49.8779 51.8833 49.6487 51.8137 49.4356C51.7441 49.2225 51.515 49.1062 51.3019 49.1758C51.0888 49.2454 50.9724 49.4745 51.042 49.6876C51.1116 49.9007 51.3407 50.0171 51.5538 49.9475Z" fill="#4E4742" stroke="#37332F" stroke-width="0.280252" stroke-miterlimit="3.99393" stroke-linecap="round"/>
<path d="M42.7884 49.1543L41.6094 49.835L42.333 51.0883L43.512 50.4076L42.7884 49.1543Z" fill="#453F3B" stroke="#37332F" stroke-width="0.560502" stroke-miterlimit="3.99393" stroke-linecap="round"/>
<path d="M52.8053 51.4497L51.9608 49.9682L48.4222 52.0082C48.0827 52.78 48.4578 53.4372 49.2448 53.5186L52.8053 51.4497Z" fill="#3C3834" stroke="#37332F" stroke-width="0.560502" stroke-miterlimit="3.99393" stroke-linecap="round"/>
<path d="M41.7168 51.0479L44.7545 49.294L48.2159 47.5625L48.6093 48.2439L42.2258 51.9294L41.7168 51.0479Z" fill="#605852" stroke="#37332F" stroke-width="0.560502" stroke-miterlimit="3.99393" stroke-linecap="round"/>
<path d="M81.186 36.4659C76.0992 40.129 70.4516 43.3884 64.8615 46.2748L64.9589 42.9029L78.5649 35.0475L81.186 36.4659Z" fill="#743325"/>
<path d="M56.4543 45.4285L83.2421 29.7389L85.3003 33.3033C77.5056 39.7204 67.7162 45.0167 58.7059 49.3285L56.4543 45.4285Z" stroke="#4D2219" stroke-width="1.12101" stroke-miterlimit="3.99393" stroke-linecap="round"/>
<path d="M40.9396 56.7778C41.5829 55.949 42.3381 54.7687 41.2913 52.4692L52.9904 45.7147C53.5512 45.3909 53.8105 44.9748 53.5648 44.5492L55.3518 43.5175L58.9587 49.7648C55.7644 51.7357 51.5113 54.5384 51.5113 54.5384C47.8188 56.6702 46.8679 57.8551 45.0894 59.8849" stroke="#37332F" stroke-width="1.12101" stroke-miterlimit="3.99393" stroke-linecap="round"/>
</g>
<defs>
<clipPath id="clip0_1744_862">
<rect width="110" height="110" fill="white"/>
</clipPath>
</defs>
</svg>
